www/assets/icons/border_color.svg

<svg width="24" height="24" viewBox="0 0 24 24" xmlns="http://www.w3.org/2000/svg" fill='currentColor'><path d="M22 23.0013H2V19.0013H22V23.0013ZM13.06 4.19128L16.81 7.94128L7.75 17.0013H4V13.2513L13.06 4.19128ZM17.88 6.87128L14.13 3.12128L15.96 1.29128C16.35 0.901279 16.98 0.901279 17.37 1.29128L19.71 3.63128C20.1 4.02128 20.1 4.65128 19.71 5.04128L17.88 6.87128Z"/></svg>

<svg xmlns="http://www.w3.org/2000/svg" width="24" height="24" viewBox="0 0 24 24" fill='currentColor'><path d="M22 23.001H2v-4h20zm-8.94-18.81 3.75 3.75-9.06 9.06H4v-3.75zm4.82 2.68-3.75-3.75 1.83-1.83a.996.996 0 0 1 1.41 0l2.34 2.34c.39.39.39 1.02 0 1.41z"/></svg>
